X:1
T:Black Waters
M:3/4
L:1/4
K:D
 z2 A| A F3/2 A/2| A D D| E/2 F3/2 E| D3-| D2 A/2A/2| A F A/2A/2| A D D|\
 E F E| D3-| D2 D| G G G| G/2G/2 D3/2 G/2| G F G| A3-| A3-| A2 z| A2 A|\
 A3/2 A/2 A| A G F| E3/2 E/2 E| E3-| E F G| A A3/2 A/2| A F D| G2 G|\
 G3-| G F G| A3/2 A/2 A| A F D| E F E| D3-| D z D| G G3/2 G/2| G D G|\
 G- F G| A3-| A3-| A2 z| A3| A F A| A D D| E F3/2 E/2| D3-| D3-| D z2|\
